dist/svg/note-o.svg

<!-- Generated by Trend Micro Style Portal -->
<svg version="1.1" xmlns="http://www.w3.org/2000/svg" width="16" height="16" viewBox="0 0 16 16">
  <title>note-o</title>
  <path fill="rgb(34,34,34)" d="M15 11v-9c0-0.5-0.5-1-1-1h-12c-0.5 0-1 0.5-1 1v12c0 0.5 0.5 1 1 1h9l4-4zM11 11h2.6l-2.6 2.6c0 0 0-2.6 0-2.6zM14 10h-4v4h-8v-12h12v8z"></path>
</svg>

<svg width="16" height="16" viewBox="0 0 16 16" fill="rgb(34, 34, 34)" xmlns="http://www.w3.org/2000/svg"><title>note-o</title><path d="M15 11V2C15 1.5 14.5 1 14 1H2C1.5 1 1 1.5 1 2V14C1 14.5 1.5 15 2 15H11L15 11ZM11 11H13.6L11 13.6V11ZM14 10H10V14H2V2H14V10Z" fill="rgb(34, 34, 34)" fill-opacity="1.00"/></svg>
